X: 1
T: Lady Mary Montagus Reel   (C)
O: 1779
R: reel
S: Image from Darlene Wigton, June 2017
Z: 2017 John Chambers <jc:trillian.mit.edu>
M: C|
L: 1/8
K: C
% - - - - - - - - - - - - - - - - - - - - - - - - - - - - -
|:\
"C"cege "F"af"C"ge | "C"cege "G7"dBdB |\
"C"cege "F"af"C"ge | "Dm"df"G7"dB "C"c2c2 :|
|:\
"C"G2EG GEGE | "C"G2EG c2e2 |\
"C"G2EG GEGE | "Dm"df"G7"dB "C"c2c2 :| [a2E2]
% - - - - - - - - - - - - - - - - - - - - - - - - - - - - -

%%sep 1 1 500

